images/sponsor_mirage.svg

<svg width="182" height="51" viewBox="0 0 182 51" fill="none" xmlns="http://www.w3.org/2000/svg">
<path fill-rule="evenodd" clip-rule="evenodd" d="M52.8766 5.3125C56.8029 5.3125 59.9851 8.772 59.9851 13.0401C59.9885 14.626 59.539 16.1747 58.6979 17.4758C57.8567 18.7769 56.6645 19.7674 55.2832 20.3129L61.013 31.4287H64.9353C65.5394 31.4287 66.0292 31.96 66.0292 32.6166C66.0292 33.2732 65.5394 33.8045 64.9353 33.8045H60.3901C60.379 33.8047 60.3678 33.8047 60.3566 33.8045H24.0939C23.4908 33.8045 23.001 33.2732 23.001 32.6166C23.001 31.96 23.4908 31.4287 24.0949 31.4287H28.0172L38.2202 11.7066C38.3118 11.5294 38.4443 11.3808 38.605 11.2751C38.7656 11.1695 38.9488 11.1104 39.1369 11.1037C39.3249 11.097 39.5114 11.1428 39.6782 11.2367C39.845 11.3306 39.9864 11.4694 40.0887 11.6397L45.9505 21.403L47.7737 18.4184C46.4838 16.9737 45.7647 15.0453 45.7682 13.0401C45.7682 8.772 48.9514 5.3125 52.8776 5.3125H52.8766ZM47.2504 23.5694L51.969 31.4287H58.5068L51.1579 17.1721L47.2504 23.5694V23.5694ZM49.3594 31.4287L39.2412 14.5775L30.5243 31.4287H49.3584H49.3594ZM57.9352 13.0401C57.9382 14.2323 57.5813 15.3933 56.9186 16.3478C56.2559 17.3022 55.3232 17.9984 54.2613 18.3313L52.1907 14.314C52.0997 14.1372 51.9679 13.9887 51.8081 13.8828C51.6483 13.777 51.4658 13.7173 51.2784 13.7096C51.091 13.7019 50.9049 13.7465 50.7381 13.8389C50.5713 13.9314 50.4294 14.0687 50.3261 14.2375L48.9445 16.5006C48.2127 15.52 47.8148 14.2986 47.817 13.0401C47.817 10.0024 50.0827 7.54056 52.8766 7.54056C55.6705 7.54056 57.9352 10.0024 57.9352 13.0401V13.0401Z" fill="#9FA6B2"/>
<path d="M32.4806 37.3711C31.8785 37.3711 31.3896 37.9023 31.3896 38.5579C31.3896 39.2135 31.8785 39.7437 32.4806 39.7437H56.5467C57.1498 39.7437 57.6386 39.2124 57.6386 38.5579C57.6386 37.9023 57.1498 37.3711 56.5477 37.3711H32.4806ZM40.8702 43.3105C40.2661 43.3105 39.7763 43.8428 39.7763 44.4994C39.7763 45.155 40.2661 45.6873 40.8702 45.6873H48.159C48.7622 45.6873 49.252 45.156 49.252 44.4994C49.252 43.8428 48.7622 43.3105 48.1581 43.3105H40.8702Z" fill="#9FA6B2"/>
<path fill-rule="evenodd" clip-rule="evenodd" d="M141.288 23.238C140.32 21.9099 138.87 21.1948 137.004 21.1948C134.063 21.1948 131.042 23.8808 131.042 28.405C131.042 32.9291 134.063 35.6151 137.004 35.6151C138.87 35.6151 140.32 34.9138 141.288 33.5719V34.696C141.288 37.2938 139.837 38.8706 137.206 38.8706C135.635 38.8706 134.144 38.3149 132.842 37.4543L131.821 40.0383C133.177 41.0891 135.285 41.6586 137.206 41.6586C141.502 41.6586 144.107 38.9588 144.107 34.5643V21.5593H141.288V23.238V23.238ZM133.929 28.405C133.929 26.0409 135.352 24.0699 137.728 24.0699C139.998 24.0699 141.529 25.9538 141.529 28.405C141.529 30.8572 139.998 32.74 137.728 32.74C135.352 32.74 133.929 30.7563 133.929 28.405V28.405ZM125.829 23.2529C124.943 22.0119 123.614 21.1948 121.787 21.1948C118.19 21.1948 115.356 24.274 115.356 28.5505C115.356 32.8271 118.189 35.9073 121.787 35.9073C123.615 35.9073 124.943 35.1051 125.829 33.8641V35.5428H128.636V21.5603H125.829V23.2529V23.2529ZM118.243 28.5505C118.243 26.0993 119.707 24.0699 122.123 24.0699C124.446 24.0699 126.004 25.9963 126.004 28.5505C126.004 31.1048 124.446 33.0321 122.123 33.0321C119.707 33.0321 118.243 31.0028 118.243 28.5505ZM159 28.5367C158.987 24.173 156.517 21.1948 152.918 21.1948C149.131 21.1948 146.513 24.173 146.513 28.5516C146.513 32.9886 149.239 35.9083 153.092 35.9083C155.039 35.9083 156.811 35.3983 158.382 33.9385L156.986 31.7625C155.925 32.6815 154.556 33.2372 153.266 33.2372C151.44 33.2372 149.816 32.1853 149.44 29.6746H158.947C158.974 29.3251 159 28.9309 159 28.5367V28.5367ZM149.454 27.3541C149.749 25.311 150.863 23.9095 152.863 23.9095C154.65 23.9095 155.818 25.1792 156.126 27.3541H149.454V27.3541Z" fill="#9FA6B2"/>
<path d="M86.4005 29.7042L80.9349 15.1076H76.2754V35.5427H79.3108V18.888L84.801 33.5431H87.997L93.4892 18.7276V35.5427H96.5246V15.1076H91.8641L86.3995 29.7042H86.4005ZM103.027 35.5427V21.5602H100.207V35.5427H103.027ZM115.032 21.5889C114.388 21.3116 113.73 21.1957 112.87 21.1957C111.299 21.1957 109.983 21.8077 109.137 23.1359V21.5581H106.358V35.5406H109.165V27.8481C109.165 25.4702 110.44 24.0974 112.226 24.0974C112.911 24.0974 113.77 24.2727 114.36 24.6085L115.032 21.5878V21.5889ZM103.591 16.7279C103.591 15.5167 102.718 14.5679 101.603 14.5679C100.489 14.5679 99.6418 15.5167 99.6418 16.7279C99.6418 17.9392 100.489 18.8593 101.603 18.8593C102.718 18.8593 103.591 17.9392 103.591 16.7279Z" fill="#9FA6B2"/>
</svg>

<svg xmlns="http://www.w3.org/2000/svg" width="182" height="51" fill="#9fa6b2"  xmlns:v="https://vecta.io/nano"><path fill-rule="evenodd" d="M52.877 5.313c3.926 0 7.108 3.46 7.108 7.728.003 1.586-.446 3.135-1.287 4.436s-2.033 2.292-3.415 2.837l5.73 11.116h3.922c.604 0 1.094.53 1.094 1.188s-.5 1.188-1.094 1.188H60.4c-.01 0-.022 0-.033 0H24.094c-.603 0-1.093-.53-1.093-1.188s.5-1.188 1.094-1.188h3.922L38.22 11.707a1.14 1.14 0 0 1 .385-.431c.16-.106.344-.165.532-.17s.375.04.54.133.308.233.41.403l5.862 9.763 1.823-2.985c-1.3-1.445-2.01-3.373-2.005-5.378 0-4.268 3.183-7.728 7.11-7.728h-.001zM47.25 23.57l4.72 7.86h6.538l-7.35-14.257-3.907 6.397zm2.11 7.86L39.24 14.578l-8.717 16.85H49.36zm8.576-18.39c.003 1.192-.354 2.353-1.017 3.308s-1.595 1.65-2.657 1.983l-2.07-4.017c-.09-.177-.223-.325-.383-.43s-.342-.165-.53-.173-.373.037-.54.13-.31.23-.412.4L48.945 16.5c-.732-.98-1.13-2.202-1.127-3.46 0-3.038 2.266-5.5 5.06-5.5s5.06 2.462 5.06 5.5h0z"/><path d="M32.48 37.37c-.602 0-1.09.53-1.09 1.187s.49 1.186 1.09 1.186h24.066c.603 0 1.092-.53 1.092-1.186s-.49-1.187-1.09-1.187H32.48zm8.4 5.94c-.604 0-1.094.532-1.094 1.19s.5 1.188 1.094 1.188h7.29c.603 0 1.093-.53 1.093-1.188s-.5-1.19-1.094-1.19H40.87z"/><path fill-rule="evenodd" d="M141.288 23.238c-.968-1.328-2.418-2.043-4.284-2.043-2.94 0-5.962 2.686-5.962 7.2s3.02 7.2 5.962 7.2c1.866 0 3.316-.7 4.284-2.043v1.124c0 2.598-1.45 4.175-4.082 4.175-1.57 0-3.062-.556-4.364-1.416l-1.02 2.584c1.356 1.05 3.464 1.62 5.385 1.62 4.296 0 6.9-2.7 6.9-7.094V21.56h-2.82v1.68zm-7.36 5.167c0-2.364 1.423-4.335 3.8-4.335 2.27 0 3.8 1.884 3.8 4.335s-1.53 4.335-3.8 4.335c-2.376 0-3.8-1.984-3.8-4.335h0zm-8.1-5.152c-.886-1.24-2.215-2.058-4.042-2.058-3.597 0-6.43 3.08-6.43 7.356s2.833 7.357 6.43 7.357c1.828 0 3.156-.802 4.042-2.043v1.68h2.807V21.56h-2.807v1.693zm-7.586 5.298c0-2.45 1.464-4.48 3.88-4.48 2.323 0 3.88 1.926 3.88 4.48s-1.558 4.482-3.88 4.482c-2.416 0-3.88-2.03-3.88-4.482zM159 28.537c-.013-4.364-2.483-7.342-6.082-7.342-3.787 0-6.405 2.978-6.405 7.357 0 4.437 2.726 7.357 6.58 7.357 1.947 0 3.72-.5 5.3-1.97l-1.396-2.176c-1.06.92-2.43 1.475-3.72 1.475-1.826 0-3.45-1.052-3.826-3.563h9.507l.053-1.138zm-9.546-1.183c.295-2.043 1.41-3.445 3.41-3.445 1.787 0 2.955 1.27 3.263 3.445h-6.672z"/><path d="M86.4 29.704l-5.466-14.597h-4.66v20.435h3.035V18.888l5.5 14.655h3.196l5.492-14.816v16.815h3.035V15.108h-4.66L86.4 29.704zm16.627 5.84V21.56h-2.82v13.983h2.82zm12.005-13.954c-.644-.277-1.302-.393-2.162-.393-1.57 0-2.887.612-3.733 1.94v-1.578h-2.78V35.54h2.807v-7.692c0-2.378 1.275-3.75 3.06-3.75.685 0 1.544.175 2.134.51l.672-3.02zm-11.44-4.86c0-1.21-.873-2.16-1.988-2.16s-1.96.95-1.96 2.16.847 2.13 1.96 2.13 1.988-.92 1.988-2.13z"/></svg>
